RobotController/static/assets/robotDiagram/robotDiagram-IMU.svg

<?xml version="1.0" encoding="UTF-8"?>
<svg enable-background="new 0 0 27.363 20.718" version="1.1" viewBox="0 0 27.363 20.718" xml:space="preserve" xmlns="http://www.w3.org/2000/svg">

	
		<path d="m23.674 20.718h-19.985c-2.037 0-3.689-1.651-3.689-3.689v-13.34c0-2.037 1.652-3.689 3.689-3.689h19.985c2.037 0 3.689 1.652 3.689 3.689v13.34c0 2.038-1.652 3.689-3.689 3.689z" fill="#3B3B3C"/>
		<path d="m23.634 13.537h-4.612c-0.878 0-1.589-0.711-1.589-1.589s0.711-1.589 1.589-1.589h4.612c0.878 0 1.589 0.711 1.589 1.589s-0.711 1.589-1.589 1.589z" fill="#666" stroke="#666" stroke-miterlimit="10"/>
		<path d="m13.987 12.755h-0.927c-0.846 0-1.531-0.686-1.531-1.531v-2.022c0-0.846 0.686-1.531 1.531-1.531h0.926c0.846 0 1.531 0.686 1.531 1.531v2.022c1e-3 0.845-0.685 1.531-1.53 1.531z" fill="#666" stroke="#666" stroke-miterlimit="10"/>
		<path d="m20.233 3.773h-13.419c-0.518 0-0.938-0.42-0.938-0.938s0.42-0.938 0.938-0.938h13.418c0.518 0 0.938 0.42 0.938 0.938s-0.42 0.938-0.937 0.938z" fill="#262626" stroke="#262626" stroke-miterlimit="10"/>
		<path d="m17.501 18.614h-7.955c-0.518 0-0.938-0.42-0.938-0.938s0.42-0.938 0.938-0.938h7.955c0.518 0 0.938 0.42 0.938 0.938-1e-3 0.518-0.421 0.938-0.938 0.938z" fill="#262626" stroke="#262626" stroke-miterlimit="10"/>
	


</svg>

<?xml version="1.0" encoding="iso-8859-1"?>
<!-- Generator: Adobe Illustrator 24.0.1, SVG Export Plug-In . SVG Version: 6.00 Build 0)  -->
<svg version="1.1" xmlns="http://www.w3.org/2000/svg" xmlns:xlink="http://www.w3.org/1999/xlink" x="0px" y="0px"
	 viewBox="0 0 27.363 20.718" style="enable-background:new 0 0 27.363 20.718;" xml:space="preserve">
<g id="IMU">
	<g>
		<path style="fill:#3B3B3C;" d="M23.674,20.718H3.689C1.652,20.718,0,19.067,0,17.029V3.689C0,1.652,1.652,0,3.689,0h19.985
			c2.037,0,3.689,1.652,3.689,3.689v13.34C27.363,19.067,25.711,20.718,23.674,20.718z"/>
		<path style="fill:#666666;stroke:#666666;stroke-miterlimit:10;" d="M23.634,13.537h-4.612c-0.878,0-1.589-0.711-1.589-1.589v0
			c0-0.878,0.711-1.589,1.589-1.589h4.612c0.878,0,1.589,0.711,1.589,1.589v0C25.223,12.826,24.512,13.537,23.634,13.537z"/>
		<path style="fill:#666666;stroke:#666666;stroke-miterlimit:10;" d="M13.987,12.755H13.06c-0.846,0-1.531-0.686-1.531-1.531V9.202
			c0-0.846,0.686-1.531,1.531-1.531h0.926c0.846,0,1.531,0.686,1.531,1.531v2.022C15.518,12.069,14.832,12.755,13.987,12.755z"/>
		<path style="fill:#262626;stroke:#262626;stroke-miterlimit:10;" d="M20.233,3.773H6.814c-0.518,0-0.938-0.42-0.938-0.938v0
			c0-0.518,0.42-0.938,0.938-0.938h13.418c0.518,0,0.938,0.42,0.938,0.938v0C21.17,3.353,20.75,3.773,20.233,3.773z"/>
		<path style="fill:#262626;stroke:#262626;stroke-miterlimit:10;" d="M17.501,18.614H9.546c-0.518,0-0.938-0.42-0.938-0.938v0
			c0-0.518,0.42-0.938,0.938-0.938h7.955c0.518,0,0.938,0.42,0.938,0.938v0C18.438,18.194,18.018,18.614,17.501,18.614z"/>
	</g>
</g>
<g id="Layer_1">
</g>
</svg>
